src/static/logos/saltstack.svg

<?xml version="1.0" encoding="UTF-8" standalone="no"?>
<svg width="256px" height="263px" viewBox="0 0 256 263" version="1.1" xmlns="http://www.w3.org/2000/svg" xmlns:xlink="http://www.w3.org/1999/xlink" preserveAspectRatio="xMidYMid">
    <g>
        <path d="M255.922,37.1552037 L255.911,37.0442037 C255.888,36.7842037 255.854,36.5252037 255.786,36.2732037 C255.727,36.0532037 255.642,35.8462037 255.548,35.6412037 L255.478,35.4702037 C255.392,35.2362037 255.297,35.0072037 255.176,34.7972037 C255.058,34.5902037 254.914,34.4012037 254.763,34.2182037 L254.654,34.0762037 C254.518,33.8812037 254.375,33.6922037 254.202,33.5182037 C254.032,33.3472037 253.839,33.1972037 253.639,33.0552037 L253.498,32.9462037 C253.319,32.7942037 253.134,32.6502037 252.911,32.5202037 L198.75,0.849203714 C196.753,-0.316796286 194.295,-0.279796286 192.332,0.946203714 L155.876,22.8212037 L118.04,1.51020371 C116.15,0.455203714 113.811,0.469203714 111.935,1.54720371 L3.264,63.9112037 L2.909,64.1202037 C2.743,64.2312037 2.588,64.3542037 2.437,64.4822037 L2.305,64.5862037 C2.127,64.7122037 1.955,64.8472037 1.802,65.0012037 C1.584,65.2212037 1.4,65.4682037 1.171,65.7962037 C1.044,65.9472037 0.926,66.1042037 0.828,66.2742037 C0.58,66.7062037 0.381,67.1822037 0.236,67.6962037 L0.197,67.8512037 C0.066,68.3672037 0,68.8772037 0,69.3692037 L1.165,195.375204 C1.165,197.608204 2.373,199.677204 4.318,200.775204 L111.761,261.383204 C112.036,261.539204 112.325,261.650204 112.711,261.786204 C112.878,261.863204 113.049,261.929204 113.225,261.976204 C113.744,262.113204 114.277,262.183204 114.808,262.183204 C115.339,262.183204 115.873,262.113204 116.398,261.975204 C116.587,261.925204 116.77,261.851204 117.071,261.723204 C117.164,261.690204 117.256,261.656204 117.349,261.620204 L117.619,261.618204 L118.058,261.267204 L224.399,200.763204 C226.348,199.654204 227.549,197.572204 227.532,195.329204 L227.609,132.414204 C227.594,130.536204 227.071,128.232204 225.629,127.076204 C225.441,126.925204 223.649,125.170204 222.563,124.151204 L252.965,106.119204 C254.837,105.007204 256,102.964204 256,100.788204 L256,37.8832037 C256,37.6552037 255.971,37.4352037 255.922,37.1552037 L255.922,37.1552037 Z M195.731,13.4452037 L237.455,37.8442037 L195.591,61.9682037 L154.103,37.5102037 L195.731,13.4452037 L195.731,13.4452037 Z M198.228,137.679204 L209.285,131.126204 L209.85,132.104204 L174.997,152.744204 L174.744,125.771204 L192.15,137.709204 L192.461,137.890204 C192.691,138.009204 192.941,138.106204 193.265,138.222204 C193.444,138.304204 193.625,138.377204 193.806,138.425204 C194.853,138.709204 195.768,138.518204 196.857,138.229204 C197.033,138.182204 197.202,138.113204 197.459,138.004204 C197.716,137.914204 197.969,137.816204 198.228,137.679204 L198.228,137.679204 Z M147.898,48.6532037 L154.072,52.7412037 L189.422,72.7222037 L189.433,120.326204 C189.433,120.326204 175.62,112.194204 174.744,112.095204 L174.718,100.070204 C174.718,99.8602037 174.693,99.6582037 174.644,99.3392037 C174.627,99.0912037 174.6,98.8452037 174.539,98.5932037 L174.473,98.3722037 C174.426,98.2242037 174.37,98.0812037 174.308,97.9392037 L174.243,97.7702037 C174.165,97.5452037 174.078,97.3252037 173.984,97.1532037 L173.91,97.0202037 C173.81,96.8442037 173.691,96.6812037 173.565,96.5222037 L173.47,96.3912037 C173.333,96.1902037 173.189,95.9952037 173.049,95.8482037 L172.936,95.7272037 C172.795,95.5842037 172.637,95.4572037 172.39,95.2682037 C172.224,95.1152037 172.051,94.9702037 171.86,94.8482037 L147.898,81.4512037 L147.898,48.6532037 L147.898,48.6532037 Z M108.609,245.371204 L13.562,191.755204 L13.562,81.1362037 L108.609,135.158204 L108.609,245.371204 L108.609,245.371204 Z M114.776,124.403204 L18.862,69.4212037 L114.848,13.5772037 L143.213,30.1652037 L138.708,33.0132037 C138.526,33.1272037 138.364,33.2592037 138.111,33.4792037 C137.919,33.6252037 137.734,33.7752037 137.57,33.9442037 C137.409,34.1092037 137.269,34.2872037 137.135,34.4712037 L137.02,34.6222037 C136.877,34.8082037 136.739,34.9952037 136.62,35.2052037 C136.509,35.3992037 136.42,35.6032037 136.337,35.8112037 L136.262,35.9932037 C136.168,36.2122037 136.082,36.4332037 136.021,36.6592037 C135.961,36.8812037 135.926,37.1072037 135.878,37.4682037 C135.836,37.6732037 135.804,37.8802037 135.798,38.0912037 L135.615,48.7802037 L112.043,63.8112037 C110.205,64.9302037 109.093,66.8842037 109.069,69.0382037 C109.045,71.1892037 110.114,73.1662037 111.927,74.3282037 L156.003,99.8122037 L114.776,124.403204 L114.776,124.403204 Z M135.908,63.7982037 L135.593,74.7472037 L126.975,69.2362037 L135.908,63.7982037 L135.908,63.7982037 Z M121.007,245.327204 L121.007,135.118204 L162.509,111.098204 L162.461,118.807204 L162.461,161.716204 C162.461,163.943204 163.664,166.009204 165.596,167.105204 C167.531,168.204204 169.921,168.180204 171.836,167.039204 L216.406,142.233204 L216.659,190.226204 L121.007,245.327204 L121.007,245.327204 Z M243.504,96.3932037 L201.716,120.706204 L201.819,72.6882037 L243.603,48.6092037 L243.504,96.3932037 L243.504,96.3932037 Z" fill="#231F1F"></path>
    </g>
</svg>

<svg width="256" height="263" xmlns="http://www.w3.org/2000/svg" preserveAspectRatio="xMidYMid"><path d="M255.922 37.155l-.011-.11a4.458 4.458 0 00-.125-.772 4.003 4.003 0 00-.238-.632l-.07-.17a4.351 4.351 0 00-.302-.674 4.14 4.14 0 00-.413-.579l-.109-.142a4.103 4.103 0 00-.452-.558 4.28 4.28 0 00-.563-.463l-.141-.109a4.023 4.023 0 00-.587-.426L198.75.85a6.19 6.19 0 00-6.418.096l-36.456 21.875-37.836-21.31a6.225 6.225 0 00-6.105.036L3.264 63.911l-.355.21a5.219 5.219 0 00-.472.361l-.132.104c-.178.126-.35.261-.503.415-.218.22-.402.467-.631.795a3.337 3.337 0 00-.343.478 6.268 6.268 0 00-.592 1.422l-.039.155A6.18 6.18 0 000 69.37l1.165 126.006a6.21 6.21 0 003.153 5.4l107.443 60.608c.275.156.564.267.95.403.167.077.338.143.514.19a6.209 6.209 0 001.583.207c.531 0 1.065-.07 1.59-.208.189-.05.372-.124.673-.252.093-.033.185-.067.278-.103l.27-.002.439-.35 106.341-60.505a6.204 6.204 0 003.133-5.434l.077-62.915c-.015-1.878-.538-4.182-1.98-5.338-.188-.15-1.98-1.906-3.066-2.925l30.402-18.032a6.23 6.23 0 003.035-5.33V37.882c0-.228-.029-.448-.078-.728zm-60.191-23.71l41.724 24.4-41.864 24.123-41.488-24.458 41.628-24.065zm2.497 124.234l11.057-6.553.565.978-34.853 20.64-.253-26.973 17.406 11.938.311.181c.23.12.48.216.804.332.179.082.36.155.541.203 1.047.284 1.962.093 3.051-.196.176-.047.345-.116.602-.225.257-.09.51-.188.769-.325zm-50.33-89.026l6.174 4.088 35.35 19.981.011 47.604s-13.813-8.132-14.689-8.23l-.026-12.026c0-.21-.025-.412-.074-.73a4.406 4.406 0 00-.105-.747l-.066-.22a4.434 4.434 0 00-.165-.434l-.065-.169a4.23 4.23 0 00-.259-.617l-.074-.133a3.946 3.946 0 00-.345-.498l-.095-.13a4.436 4.436 0 00-.421-.544l-.113-.12a5.076 5.076 0 00-.546-.46 3.835 3.835 0 00-.53-.42l-23.962-13.397V48.653zm-39.289 196.718l-95.047-53.616V81.136l95.047 54.022v110.213zm6.167-120.968L18.862 69.421l95.986-55.844 28.365 16.588-4.505 2.848a4.734 4.734 0 00-.597.466 4.759 4.759 0 00-.541.465 4.735 4.735 0 00-.435.527l-.115.151a5 5 0 00-.4.583 4.77 4.77 0 00-.283.606l-.075.182a5.01 5.01 0 00-.241.666 6.16 6.16 0 00-.143.81 3.613 3.613 0 00-.08.622l-.183 10.69-23.572 15.03a6.164 6.164 0 00-2.974 5.227 6.167 6.167 0 002.858 5.29l44.076 25.484-41.227 24.591zm21.132-60.605l-.315 10.95-8.618-5.512 8.933-5.438zm-14.901 181.53v-110.21l41.502-24.02-.048 7.71v42.908a6.207 6.207 0 003.135 5.39 6.215 6.215 0 006.24-.067l44.57-24.806.253 47.993-95.652 55.101zM243.504 96.392l-41.788 24.313.103-48.018 41.784-24.079-.099 47.784z" fill="#231F1F"/></svg>
